X:1
T:We March to Victory
T:Joseph Barnby, 1869
T:We March to Victory
T:Public Domain
T:Public Domain
T:Public Domain
C:Joseph Barnby, 1869
Z:Public Domain
%%score ( 1 2 ) ( 3 4 )
L:1/8
M:4/4
K:C
V:1 treble 
V:2 treble 
V:3 bass 
V:4 bass 
V:1
 [EG]2"^Refrain" x8 | [EG]2 [EA]2 E2 [EG]2 | [EG]2 [EA]2 E2 [CE]>[DF] | %3
w: ~|~ ~ ~ ~|~ ~ ~ ~ ~|
w: We|march, we march to|to- ry, With the cross|
w: ~|~ ~ ~ ~|~ ~ ~ ~ ~|
w: ~|~ ~ ~ ~|~ ~ ~ ~ ~|
 [EG]2 [EA]>[EB] [EGB]2 [EGc]2 | [DGd]4 [DGd]2 [Gc][Gc] | [GA]2 [FB]2 [FG]2 [Ec][Ec] | %6
w: ~ ~ ~ ~ ~|~ ~ ~ ~|~ ~ ~ ~ ~|
w: the Lord be- fore us,|With His lov- ing|eye look- ing down from|
w: ~ ~ ~ ~ ~|~ ~ ~ ~|~ ~ ~ ~ ~|
w: ~ ~ ~ ~ ~|~ ~ ~ ~|~ ~ ~ ~ ~|
 [DA]2 [DB][DA] G2 [Ec]>[Ec] | [Ff]3 [Ac] [Ac]2 [Ad]2 | [EGe]4 [Ec]2 G2 | (AB) [Cc]2 (CD) [EG]2 | %10
w: ~ ~ ~ ~ ~ ~|~ ~ ~ ~|~ ~ ~|~ * ~ 1.~We * come|
w: the sky, And His ho- ly|spread o’er us, His|ho- ly arm|o’er * us. 2.~Our * sword|
w: ~ ~ ~ ~ ~ ~|~ ~ ~ ~|~ ~ ~|~ * ~ 3.~And * the|
w: ~ ~ ~ ~ ~ ~|~ ~ ~ ~|~ ~ ~|~ * ~ 4.~Then * on-|
 [Fd]4 [Ec]2 || (GG) x6 | G2 [DG]>[DG] [EG]2 GG | G2 [DG]2 [EG]2 ([EG]>[EG]) | %14
w: the might|of *|the Lord of light, With ar-|bright to meet Him; *|
w: the Spir-|it *|of God on high, Our hel-|is~His sal- va- tion, *|
w: of an-|gels *|with song a- waits Our march|gold- en Zi- on, *|
w: we march,|our *|~ arms to prove, With~the ban-|Christ be- fore us, *|
 [FA]2 ([FA][FA]) [Ac]2 [Ad]2 | [^Ge]4 [EB]2 [EB][EB] | ([Ec][Ec])([^DB][DB]) [E^G]2 ([EB][EB]) | %17
w: we put * to flight|the ar- mies of|night, * That~the * sons of~the *|
w: ~ ban- * ner the|cross of Cal- va-|ry. * Our * watch- word,~the *|
w: our Cap- * tain~has brok-|en the braz- en|gates, * And * burst the *|
w: His eye * of love|looking down from a-|bove, * And~His * ho- ly *|
 ([Ec][Ec])[^DB][DB] [E^G]2 (E>E) | [EA]2 ([EA][EB]) [EAc]2 [GBd]2 | [Ge]4 A2 [C^DA]2 | %20
w: day * may greet Him, The *|sons of * day may|greet Him. *|
w: In- * car- na- tion, Our *|watchword, the * In- car-|na- tion. *|
w: bars * of ir- on, And *|burst the * bars of|ir- on. *|
w: arm * spread o’er us, His *|ho- ly * arm spread|o’er us. *|
 (z B) c2 E2 [EA]2 | [DB]4 [CA]2 |] %22
w: ||
w: ||
w: ||
w: ||
V:2
 x10 | x4 E2 x2 | x4 E2 x2 | x8 | x8 | x8 | x4 G2 x2 | x8 | x6 G2 | x4 c2 x2 | x6 || x8 | G2 x6 | %13
w: |~|~||||~||~|in|||mor|
w: |vic-|of||||arm||spread|is|||met|
w: |~|~||||~||~|choir|||to~the|
w: |~|~||||~||~|ward|||ner~of|
 G2 x6 | x8 | x8 | x8 | x8 | x8 | x4 A2 x2 | ([CEA]2 c2) E2 x2 | x6 |] %22
w: And|||||||||
w: Our|||||||||
w: For|||||||||
w: With|||||||||
V:3
 [C,C]2 [C,C]2 [A,,C]2 [C,G,]2 [C,C]2 | [C,C]2 [A,,C]2 [C,C]2 [C,G,]>[C,G,] | %2
 [C,C]2 [G,C]>[G,C] [E,G,]2 [C,G,C]2 | [G,C]4 [G,B,]2 [E,C][E,C] | %4
 [F,C]2 [D,D]2 [G,B,]2 [C,C][C,C] | [F,C]2 [F,B,][F,B,] [E,C]2 [_B,C]>[B,C] | %6
 [F,C]3 [F,C] [F,C]2 [F,C]2 | C4 [C,G,]2 G,2 | (A,B,) [^F,C]2 [G,C]2 x2 | [G,C]2 [G,B,]4 [C,C]2 | %10
 (G,G,) x4 || G,2 [G,B,]>[G,B,] [C,C]2 G,G, | G,2 [G,B,]2 [C,C]2 ([C,C]>[C,C]) | %13
 [F,C]2 ([F,C][F,C]) [F,A,]2 [F,A,]2 | [E,B,]4 [E,^G,]2 [E,G,][E,G,] | %15
 ([A,,^F,][A,,F,])([B,,F,][B,,F,]) E,2 ([G,B,][G,B,]) | %16
 ([^F,A,][F,A,])[B,,F,][B,,F,] [E,G,]2 ([D,^G,]>[D,G,]) | [C,A,]2 [C,A,][E,G,] A,2 [G,B,]2 | %18
 [C,C]4 [F,A,]2 [F,,F,A,]2 | (A,B,) C2 E,2 [E,C]2 | [E,^G,]4 [A,,A,]2 x2 | x6 |] %22
V:4
 x10 | x8 | x8 | x8 | x8 | x8 | x8 | C4 G,2 x2 | x8 | x8 | x6 || G,2 x6 | G,2 x6 | x8 | x8 | %15
 x4 E,2 x2 | x8 | x4 A,2 x2 | x8 | [E,,C,E,]2 C2 E,2 x2 | x8 | x6 |] %22

